X: 855
T: Cronin's rambles
C: anon.
O: Ireland
B: Francis O'Neill: "The Dance Music of Ireland" (1907) no. 855
R: Hornpipe
Z: Transcribed by Frank Nordberg - http://www.musicaviva.com
F: http://www.musicaviva.com/abc/tunes/ireland/oneill-1001/oneill-1001-085
5.abc
M: C|
L: 1/8
K: A
E2|AGAB cABc|dcdf ed (3efg|aecA dfed|cABG EFGE|\
AGAB cABc|dcdf ed (3efg|aecA dBGB|A2 A2 A2:|
|:A2|Aceg aece|gefd efge|aecA dfed|cABG EFGB|\
Aceg aecA|gfdf e2 (3efg|aecA dBGB|A2 A2 A2:|
W:
W:
W: From Musica Viva - http://www.musicaviva.com
W: the Internet center for free sheet music downloads.


